X: 1
M: C|
L: 1/8
K: A
E2 |\
|: e2 |\
c>eA>e c>eA>e | d>fB>f d>fB>f | c>eA>e c>eA>e | B>AG>F E>fe>d |
c>eA>e c>eA>e | d>fB>f d>fB>f | A>ag>f e>dc>B | A2[a2c2] A2 H:|

